X:1
T:Father Kelly's
L:1/8
M:4/4
I:linebreak $
K:C
V:1 treble 
V:1
|: eAAA EAce | dGGG dGBd | eAAA EAcA | BedB ABcd | eAAA EAce |$ dGGG dGBd | eAAA ^eA=eA | %7
 BedB ABcd :: eaag aaba | gedB GABd |$ eaag aaba | gabg aaag | eaag aaba | gedB GABd | %14
 eAAA ^eA=eA |$ BedB ABcd :| %16
